src/assets/images/stepper-icon-2.svg

<?xml version="1.0" encoding="utf-8"?>
<!-- Generator: Adobe Illustrator 19.2.0, SVG Export Plug-In . SVG Version: 6.00 Build 0)  -->
<svg version="1.1" id="Layer_1" xmlns="http://www.w3.org/2000/svg" xmlns:xlink="http://www.w3.org/1999/xlink" x="0px" y="0px"
	 viewBox="0 0 505 505" style="enable-background:new 0 0 505 505;" xml:space="preserve">
<style type="text/css">
	.st0{fill:#324A5E;}
	.st1{fill:#ACB3BA;}
	.st2{fill:#2B3B4E;}
	.st3{fill:#FF7058;}
	.st4{fill:#54C0EB;}
	.st5{fill:#E6E9EE;}
	.st6{fill:#FFFFFF;}
	.st7{fill:#F1543F;}
</style>
<title>Stepper - Delivery</title>
<desc>Created with Sketch.</desc>
<g id="Page-1">
	<g id="Stepper---Delivery">
		<circle id="Oval_1_" class="st0" cx="345.8" cy="345.4" r="36.6"/>
		<g id="Group" transform="translate(320.000000, 320.000000)">
			<circle id="Oval_2_" class="st1" cx="25.8" cy="25.4" r="10.2"/>
			<path id="Shape" class="st1" d="M29.7,10.8c-2,0.8-6.3,0.8-7.9,0c-2-1.2-5.1-6.3-3.9-8.3c2-3.2,13.8-3.2,15.8,0
				C34.9,4.5,31.7,9.6,29.7,10.8z"/>
			<path id="Shape_1_" class="st1" d="M21.5,40c2-0.8,6.3-0.8,7.9,0c2,1.2,5.1,6.3,3.9,8.3c-2,3.2-13.8,3.2-15.8,0
				C16.3,46.3,19.5,40.8,21.5,40z"/>
			<path id="Shape_2_" class="st1" d="M40,29.3c-0.8-2-0.8-6.3,0-7.9c1.2-2,6.3-5.1,8.3-3.9c3.2,2,3.2,13.8,0,15.8
				C46.7,34.5,41.2,31.3,40,29.3z"/>
			<path id="Shape_3_" class="st1" d="M11.2,21.5c0.8,2,0.8,6.3,0,7.9c-1.2,2-6.3,5.1-8.3,3.9c-3.2-2-3.2-13.8,0-15.8
				C4.5,16,10,19.1,11.2,21.5z"/>
		</g>
		<circle id="Oval_3_" class="st2" cx="345.8" cy="345.4" r="3.9"/>
		<rect id="Rectangle-path" x="90.6" y="122.5" class="st3" width="181.2" height="167"/>
		<polygon id="Shape_4_" class="st4" points="401.7,215.4 346.6,122.5 281.6,122.5 281.6,289.5 401.7,289.5 		"/>
		<polygon id="Shape_5_" class="st5" points="378.5,215 335.2,142.2 301.3,142.2 301.3,215 		"/>
		<rect id="Rectangle-path_1_" x="301.3" y="233.2" class="st0" width="21.3" height="6.7"/>
		<path id="Shape_6_" class="st6" d="M388.3,244.2c0,7.5,5.9,13.4,13.4,13.4v-26.8C394.2,230.8,388.3,236.7,388.3,244.2z"/>
		<path id="Shape_7_" class="st7" d="M397.4,252.8c0,2.4,2,4.3,4.3,4.3v-8.7C399.4,248.5,397.4,250.5,397.4,252.8z"/>
		<g id="Group_1_" transform="translate(90.000000, 289.000000)">
			<path id="Shape_8_" class="st0" d="M315.7,0.5H0.6V56h20.9c0-24.4,20.1-44.1,44.5-44.1s44.1,19.7,44.5,44.1h101.2
				c0-24.4,20.1-44.1,44.5-44.1c24.4,0,44.1,19.7,44.5,44.1h15.8V0.5H315.7z"/>
			<circle id="Oval_4_" class="st0" cx="66" cy="56.4" r="36.6"/>
		</g>
		<g id="Group_2_" transform="translate(130.000000, 320.000000)">
			<circle id="Oval_5_" class="st1" cx="26" cy="25.4" r="10.2"/>
			<path id="Shape_9_" class="st1" d="M29.9,10.8c-2,0.8-6.3,0.8-7.9,0c-2-1.2-5.1-6.3-3.9-8.3c2-3.2,13.8-3.2,15.8,0
				C35,4.5,31.9,9.6,29.9,10.8z"/>
			<path id="Shape_10_" class="st1" d="M22,40c2-0.8,6.3-0.8,7.9,0c2,1.2,5.1,6.3,3.9,8.3c-2,3.2-13.8,3.2-15.8,0
				C16.5,46.3,19.7,40.8,22,40z"/>
			<path id="Shape_11_" class="st1" d="M40.5,29.3c-0.8-2-0.8-6.3,0-7.9c1.2-2,6.3-5.1,8.3-3.9c3.2,2,3.2,13.8,0,15.8
				C46.8,34.5,41.3,31.3,40.5,29.3z"/>
			<path id="Shape_12_" class="st1" d="M11.4,21.5c0.8,2,0.8,6.3,0,7.9c-1.2,2-6.3,5.1-8.3,3.9c-3.2-2-3.2-13.8,0-15.8
				C5.1,16,10.2,19.1,11.4,21.5z"/>
		</g>
		<circle id="Oval_6_" class="st2" cx="156" cy="345.4" r="3.9"/>
	</g>
</g>
</svg>

<?xml version="1.0" encoding="UTF-8"?>
<svg width="317px" height="260px" viewBox="0 0 317 260" version="1.1" xmlns="http://www.w3.org/2000/svg" xmlns:xlink="http://www.w3.org/1999/xlink">
    <!-- Generator: Sketch 45.2 (43514) - http://www.bohemiancoding.com/sketch -->
    <title>Stepper - Delivery</title>
    <desc>Created with Sketch.</desc>
    <defs></defs>
    <g id="Page-1" stroke="none" stroke-width="1" fill="none" fill-rule="evenodd">
        <g id="Stepper---Delivery" fill-rule="nonzero">
            <circle id="Oval_1_" fill="#324A5E" cx="255.8" cy="223.4" r="36.6"></circle>
            <g id="Group" transform="translate(230.000000, 198.000000)" fill="#ACB3BA">
                <circle id="Oval_2_" cx="25.8" cy="25.4" r="10.2"></circle>
                <path d="M29.7,10.8 C27.7,11.6 23.4,11.6 21.8,10.8 C19.8,9.6 16.7,4.5 17.9,2.5 C19.9,-0.7 31.7,-0.7 33.7,2.5 C34.9,4.5 31.7,9.6 29.7,10.8 Z" id="Shape"></path>
                <path d="M21.5,40 C23.5,39.2 27.8,39.2 29.4,40 C31.4,41.2 34.5,46.3 33.3,48.3 C31.3,51.5 19.5,51.5 17.5,48.3 C16.3,46.3 19.5,40.8 21.5,40 Z" id="Shape_1_"></path>
                <path d="M40,29.3 C39.2,27.3 39.2,23 40,21.4 C41.2,19.4 46.3,16.3 48.3,17.5 C51.5,19.5 51.5,31.3 48.3,33.3 C46.7,34.5 41.2,31.3 40,29.3 Z" id="Shape_2_"></path>
                <path d="M11.2,21.5 C12,23.5 12,27.8 11.2,29.4 C10,31.4 4.9,34.5 2.9,33.3 C-0.3,31.3 -0.3,19.5 2.9,17.5 C4.5,16 10,19.1 11.2,21.5 Z" id="Shape_3_"></path>
            </g>
            <circle id="Oval_3_" fill="#2B3B4E" cx="255.8" cy="223.4" r="3.9"></circle>
            <rect id="Rectangle-path" fill="#FF7058" x="0.6" y="0.5" width="181.2" height="167"></rect>
            <polygon id="Shape_4_" fill="#54C0EB" points="311.7 93.4 256.6 0.5 191.6 0.5 191.6 167.5 311.7 167.5"></polygon>
            <polygon id="Shape_5_" fill="#E6E9EE" points="288.5 93 245.2 20.2 211.3 20.2 211.3 93"></polygon>
            <rect id="Rectangle-path_1_" fill="#324A5E" x="211.3" y="111.2" width="21.3" height="6.7"></rect>
            <path d="M298.3,122.2 C298.3,129.7 304.2,135.6 311.7,135.6 L311.7,108.8 C304.2,108.8 298.3,114.7 298.3,122.2 Z" id="Shape_6_" fill="#FFFFFF"></path>
            <path d="M307.4,130.8 C307.4,133.2 309.4,135.1 311.7,135.1 L311.7,126.4 C309.4,126.5 307.4,128.5 307.4,130.8 Z" id="Shape_7_" fill="#F1543F"></path>
            <g id="Group_1_" transform="translate(0.000000, 167.000000)" fill="#324A5E">
                <path d="M315.7,0.5 L0.6,0.5 L0.6,56 L21.5,56 C21.5,31.6 41.6,11.9 66,11.9 C90.4,11.9 110.1,31.6 110.5,56 L211.7,56 C211.7,31.6 231.8,11.9 256.2,11.9 C280.6,11.9 300.3,31.6 300.7,56 L316.5,56 L316.5,0.5 L315.7,0.5 Z" id="Shape_8_"></path>
                <circle id="Oval_4_" cx="66" cy="56.4" r="36.6"></circle>
            </g>
            <g id="Group_2_" transform="translate(40.000000, 198.000000)" fill="#ACB3BA">
                <circle id="Oval_5_" cx="26" cy="25.4" r="10.2"></circle>
                <path d="M29.9,10.8 C27.9,11.6 23.6,11.6 22,10.8 C20,9.6 16.9,4.5 18.1,2.5 C20.1,-0.7 31.9,-0.7 33.9,2.5 C35,4.5 31.9,9.6 29.9,10.8 Z" id="Shape_9_"></path>
                <path d="M22,40 C24,39.2 28.3,39.2 29.9,40 C31.9,41.2 35,46.3 33.8,48.3 C31.8,51.5 20,51.5 18,48.3 C16.5,46.3 19.7,40.8 22,40 Z" id="Shape_10_"></path>
                <path d="M40.5,29.3 C39.7,27.3 39.7,23 40.5,21.4 C41.7,19.4 46.8,16.3 48.8,17.5 C52,19.5 52,31.3 48.8,33.3 C46.8,34.5 41.3,31.3 40.5,29.3 Z" id="Shape_11_"></path>
                <path d="M11.4,21.5 C12.2,23.5 12.2,27.8 11.4,29.4 C10.2,31.4 5.1,34.5 3.1,33.3 C-0.1,31.3 -0.1,19.5 3.1,17.5 C5.1,16 10.2,19.1 11.4,21.5 Z" id="Shape_12_"></path>
            </g>
            <circle id="Oval_6_" fill="#2B3B4E" cx="66" cy="223.4" r="3.9"></circle>
        </g>
    </g>
</svg>
